images/50171134.svg

<?xml version="1.0" encoding="UTF-8"?>
<svg xmlns="http://www.w3.org/2000/svg" xmlns:xlink="http://www.w3.org/1999/xlink" width="300pt" height="300pt" viewBox="0 0 300 300" version="1.1">
<defs>
<g>
<symbol overflow="visible" id="glyph0-0">
<path style="stroke:none;" d="M 0.546875 1.9375 L 0.546875 -7.75 L 6.046875 -7.75 L 6.046875 1.9375 Z M 1.171875 1.328125 L 5.4375 1.328125 L 5.4375 -7.140625 L 1.171875 -7.140625 Z M 1.171875 1.328125 "/>
</symbol>
<symbol overflow="visible" id="glyph0-1">
<path style="stroke:none;" d="M 1.078125 -8.015625 L 5.6875 -8.015625 L 5.6875 -7.109375 L 2.171875 -7.109375 L 2.171875 -4.75 L 5.34375 -4.75 L 5.34375 -3.828125 L 2.171875 -3.828125 L 2.171875 0 L 1.078125 0 Z M 1.078125 -8.015625 "/>
</symbol>
<symbol overflow="visible" id="glyph0-2">
<path style="stroke:none;" d="M 1.078125 -8.015625 L 2.546875 -8.015625 L 6.09375 -1.3125 L 6.09375 -8.015625 L 7.15625 -8.015625 L 7.15625 0 L 5.6875 0 L 2.125 -6.703125 L 2.125 0 L 1.078125 0 Z M 1.078125 -8.015625 "/>
</symbol>
<symbol overflow="visible" id="glyph0-3">
<path style="stroke:none;" d="M 1.078125 -8.015625 L 2.171875 -8.015625 L 2.171875 -4.734375 L 6.109375 -4.734375 L 6.109375 -8.015625 L 7.1875 -8.015625 L 7.1875 0 L 6.109375 0 L 6.109375 -3.8125 L 2.171875 -3.8125 L 2.171875 0 L 1.078125 0 Z M 1.078125 -8.015625 "/>
</symbol>
<symbol overflow="visible" id="glyph0-4">
<path style="stroke:none;" d="M 4.328125 -7.28125 C 3.546875 -7.28125 2.921875 -6.984375 2.453125 -6.390625 C 1.992188 -5.804688 1.765625 -5.007812 1.765625 -4 C 1.765625 -2.988281 1.992188 -2.1875 2.453125 -1.59375 C 2.921875 -1.007812 3.546875 -0.71875 4.328125 -0.71875 C 5.117188 -0.71875 5.742188 -1.007812 6.203125 -1.59375 C 6.660156 -2.1875 6.890625 -2.988281 6.890625 -4 C 6.890625 -5.007812 6.660156 -5.804688 6.203125 -6.390625 C 5.742188 -6.984375 5.117188 -7.28125 4.328125 -7.28125 Z M 4.328125 -8.171875 C 5.453125 -8.171875 6.351562 -7.789062 7.03125 -7.03125 C 7.707031 -6.28125 8.046875 -5.269531 8.046875 -4 C 8.046875 -2.738281 7.707031 -1.726562 7.03125 -0.96875 C 6.351562 -0.21875 5.453125 0.15625 4.328125 0.15625 C 3.203125 0.15625 2.300781 -0.21875 1.625 -0.96875 C 0.957031 -1.71875 0.625 -2.726562 0.625 -4 C 0.625 -5.269531 0.957031 -6.28125 1.625 -7.03125 C 2.300781 -7.789062 3.203125 -8.171875 4.328125 -8.171875 Z M 4.328125 -8.171875 "/>
</symbol>
</g>
</defs>
<g id="surface18173">
<rect x="0" y="0" width="300" height="300" style="fill:rgb(100%,100%,100%);fill-opacity:1;stroke:none;"/>
<path style="fill:none;stroke-width:1.2;stroke-linecap:butt;stroke-linejoin:miter;stroke:rgb(20%,80%,80%);stroke-opacity:1;stroke-miterlimit:10;" d="M 35.25 131.742188 L 47.128906 137.4375 "/>
<path style="fill:none;stroke-width:1.2;stroke-linecap:butt;stroke-linejoin:miter;stroke:rgb(0%,0%,0%);stroke-opacity:1;stroke-miterlimit:10;" d="M 47.128906 137.4375 L 59.007812 143.128906 "/>
<path style=" stroke:none;fill-rule:nonzero;fill:rgb(100%,100%,100%);fill-opacity:1;" d="M 28.25 125.242188 L 35.25 125.242188 L 35.25 138.242188 L 28.25 138.242188 Z M 28.25 125.242188 "/>
<g style="fill:rgb(20%,80%,80%);fill-opacity:1;">
  <use xlink:href="#glyph0-1" x="28.25" y="135.143555"/>
</g>
<path style="fill:none;stroke-width:1.2;stroke-linecap:butt;stroke-linejoin:miter;stroke:rgb(0%,0%,0%);stroke-opacity:1;stroke-miterlimit:10;" d="M 59.007812 143.128906 L 61.027344 169.398438 "/>
<path style="fill:none;stroke-width:1.2;stroke-linecap:butt;stroke-linejoin:miter;stroke:rgb(0%,0%,0%);stroke-opacity:1;stroke-miterlimit:10;" d="M 65.390625 145.28125 L 67.003906 166.296875 "/>
<path style="fill:none;stroke-width:1.2;stroke-linecap:butt;stroke-linejoin:miter;stroke:rgb(0%,0%,0%);stroke-opacity:1;stroke-miterlimit:10;" d="M 80.746094 128.246094 L 59.007812 143.128906 "/>
<path style="fill:none;stroke-width:1.2;stroke-linecap:butt;stroke-linejoin:miter;stroke:rgb(0%,0%,0%);stroke-opacity:1;stroke-miterlimit:10;" d="M 61.027344 169.398438 L 84.785156 180.785156 "/>
<path style="fill:none;stroke-width:1.2;stroke-linecap:butt;stroke-linejoin:miter;stroke:rgb(0%,0%,0%);stroke-opacity:1;stroke-miterlimit:10;" d="M 84.785156 180.785156 L 106.523438 165.902344 "/>
<path style="fill:none;stroke-width:1.2;stroke-linecap:butt;stroke-linejoin:miter;stroke:rgb(0%,0%,0%);stroke-opacity:1;stroke-miterlimit:10;" d="M 83.457031 174.179688 L 100.847656 162.273438 "/>
<path style="fill:none;stroke-width:1.2;stroke-linecap:butt;stroke-linejoin:miter;stroke:rgb(0%,0%,0%);stroke-opacity:1;stroke-miterlimit:10;" d="M 106.523438 165.902344 L 118.402344 171.59375 "/>
<path style="fill:none;stroke-width:1.2;stroke-linecap:butt;stroke-linejoin:miter;stroke:rgb(0%,0%,100%);stroke-opacity:1;stroke-miterlimit:10;" d="M 118.402344 171.59375 L 130.28125 177.289062 "/>
<path style="fill:none;stroke-width:1.2;stroke-linecap:butt;stroke-linejoin:miter;stroke:rgb(0%,0%,0%);stroke-opacity:1;stroke-miterlimit:10;" d="M 106.523438 165.902344 L 104.503906 139.632812 "/>
<path style="fill:none;stroke-width:1.2;stroke-linecap:butt;stroke-linejoin:miter;stroke:rgb(0%,0%,100%);stroke-opacity:1;stroke-miterlimit:10;" d="M 130.28125 177.289062 L 141.152344 169.847656 "/>
<path style="fill:none;stroke-width:1.2;stroke-linecap:butt;stroke-linejoin:miter;stroke:rgb(0%,0%,0%);stroke-opacity:1;stroke-miterlimit:10;" d="M 141.152344 169.847656 L 152.023438 162.40625 "/>
<path style=" stroke:none;fill-rule:nonzero;fill:rgb(100%,100%,100%);fill-opacity:1;" d="M 122.28125 170.789062 L 139.28125 170.789062 L 139.28125 183.789062 L 122.28125 183.789062 Z M 122.28125 170.789062 "/>
<g style="fill:rgb(0%,0%,100%);fill-opacity:1;">
  <use xlink:href="#glyph0-2" x="122.28125" y="180.69043"/>
  <use xlink:href="#glyph0-3" x="130.264648" y="180.69043"/>
</g>
<path style="fill:none;stroke-width:1.2;stroke-linecap:butt;stroke-linejoin:miter;stroke:rgb(0%,0%,0%);stroke-opacity:1;stroke-miterlimit:10;" d="M 155.113281 162.167969 L 154.101562 149.035156 "/>
<path style="fill:none;stroke-width:1.2;stroke-linecap:butt;stroke-linejoin:miter;stroke:rgb(100%,0%,0%);stroke-opacity:1;stroke-miterlimit:10;" d="M 154.101562 149.035156 L 153.09375 135.898438 "/>
<path style="fill:none;stroke-width:1.2;stroke-linecap:butt;stroke-linejoin:miter;stroke:rgb(0%,0%,0%);stroke-opacity:1;stroke-miterlimit:10;" d="M 148.929688 162.644531 L 147.921875 149.507812 "/>
<path style="fill:none;stroke-width:1.2;stroke-linecap:butt;stroke-linejoin:miter;stroke:rgb(100%,0%,0%);stroke-opacity:1;stroke-miterlimit:10;" d="M 147.921875 149.507812 L 146.914062 136.375 "/>
<path style="fill:none;stroke-width:1.2;stroke-linecap:butt;stroke-linejoin:miter;stroke:rgb(0%,0%,0%);stroke-opacity:1;stroke-miterlimit:10;" d="M 152.023438 162.40625 L 163.902344 168.097656 "/>
<path style="fill:none;stroke-width:1.2;stroke-linecap:butt;stroke-linejoin:miter;stroke:rgb(0%,0%,100%);stroke-opacity:1;stroke-miterlimit:10;" d="M 163.902344 168.097656 L 175.78125 173.792969 "/>
<path style=" stroke:none;fill-rule:nonzero;fill:rgb(100%,100%,100%);fill-opacity:1;" d="M 146.003906 129.636719 L 155.003906 129.636719 L 155.003906 142.636719 L 146.003906 142.636719 Z M 146.003906 129.636719 "/>
<g style="fill:rgb(100%,0%,0%);fill-opacity:1;">
  <use xlink:href="#glyph0-4" x="146.003906" y="139.538086"/>
</g>
<path style="fill:none;stroke-width:1.2;stroke-linecap:butt;stroke-linejoin:miter;stroke:rgb(0%,0%,100%);stroke-opacity:1;stroke-miterlimit:10;" d="M 175.78125 173.792969 L 186.648438 166.351562 "/>
<path style="fill:none;stroke-width:1.2;stroke-linecap:butt;stroke-linejoin:miter;stroke:rgb(0%,0%,0%);stroke-opacity:1;stroke-miterlimit:10;" d="M 186.648438 166.351562 L 197.519531 158.910156 "/>
<path style=" stroke:none;fill-rule:nonzero;fill:rgb(100%,100%,100%);fill-opacity:1;" d="M 167.78125 167.292969 L 184.78125 167.292969 L 184.78125 180.292969 L 167.78125 180.292969 Z M 167.78125 167.292969 "/>
<g style="fill:rgb(0%,0%,100%);fill-opacity:1;">
  <use xlink:href="#glyph0-2" x="167.78125" y="177.194336"/>
  <use xlink:href="#glyph0-3" x="175.764648" y="177.194336"/>
</g>
<path style="fill:none;stroke-width:1.2;stroke-linecap:butt;stroke-linejoin:miter;stroke:rgb(0%,0%,0%);stroke-opacity:1;stroke-miterlimit:10;" d="M 197.519531 158.910156 L 198.257812 132.574219 "/>
<path style="fill:none;stroke-width:1.2;stroke-linecap:butt;stroke-linejoin:miter;stroke:rgb(0%,0%,0%);stroke-opacity:1;stroke-miterlimit:10;" d="M 222.335938 167.75 L 197.519531 158.910156 "/>
<path style="fill:none;stroke-width:1.2;stroke-linecap:butt;stroke-linejoin:miter;stroke:rgb(0%,0%,0%);stroke-opacity:1;stroke-miterlimit:10;" d="M 221.9375 161.027344 L 202.082031 153.953125 "/>
<path style="fill:none;stroke-width:1.2;stroke-linecap:butt;stroke-linejoin:miter;stroke:rgb(0%,0%,0%);stroke-opacity:1;stroke-miterlimit:10;" d="M 198.257812 132.574219 L 223.53125 125.140625 "/>
<path style="fill:none;stroke-width:1.2;stroke-linecap:butt;stroke-linejoin:miter;stroke:rgb(0%,0%,0%);stroke-opacity:1;stroke-miterlimit:10;" d="M 202.535156 137.777344 L 222.753906 131.828125 "/>
<path style="fill:none;stroke-width:1.2;stroke-linecap:butt;stroke-linejoin:miter;stroke:rgb(0%,0%,0%);stroke-opacity:1;stroke-miterlimit:10;" d="M 223.53125 125.140625 L 230.972656 136.007812 "/>
<path style="fill:none;stroke-width:1.2;stroke-linecap:butt;stroke-linejoin:miter;stroke:rgb(0%,0%,100%);stroke-opacity:1;stroke-miterlimit:10;" d="M 230.972656 136.007812 L 238.414062 146.878906 "/>
<path style="fill:none;stroke-width:1.2;stroke-linecap:butt;stroke-linejoin:miter;stroke:rgb(0%,0%,0%);stroke-opacity:1;stroke-miterlimit:10;" d="M 223.53125 125.140625 L 232.375 100.320312 "/>
<path style="fill:none;stroke-width:1.2;stroke-linecap:butt;stroke-linejoin:miter;stroke:rgb(0%,0%,100%);stroke-opacity:1;stroke-miterlimit:10;" d="M 238.414062 146.878906 L 251.582031 147.246094 "/>
<path style="fill:none;stroke-width:1.2;stroke-linecap:butt;stroke-linejoin:miter;stroke:rgb(0%,0%,0%);stroke-opacity:1;stroke-miterlimit:10;" d="M 251.582031 147.246094 L 264.75 147.617188 "/>
<path style="fill:none;stroke-width:1.2;stroke-linecap:butt;stroke-linejoin:miter;stroke:rgb(0%,0%,100%);stroke-opacity:1;stroke-miterlimit:10;" d="M 238.414062 146.878906 L 230.375 157.316406 "/>
<path style="fill:none;stroke-width:1.2;stroke-linecap:butt;stroke-linejoin:miter;stroke:rgb(0%,0%,0%);stroke-opacity:1;stroke-miterlimit:10;" d="M 230.375 157.316406 L 222.335938 167.75 "/>
<path style=" stroke:none;fill-rule:nonzero;fill:rgb(100%,100%,100%);fill-opacity:1;" d="M 234.414062 140.378906 L 242.414062 140.378906 L 242.414062 153.378906 L 234.414062 153.378906 Z M 234.414062 140.378906 "/>
<g style="fill:rgb(0%,0%,100%);fill-opacity:1;">
  <use xlink:href="#glyph0-2" x="234.414062" y="150.280273"/>
</g>
<path style="fill:none;stroke-width:1.2;stroke-linecap:butt;stroke-linejoin:miter;stroke:rgb(0%,0%,0%);stroke-opacity:1;stroke-miterlimit:10;" d="M 222.335938 167.75 L 229.773438 193.023438 "/>
<path style="fill:none;stroke-width:1.2;stroke-linecap:butt;stroke-linejoin:miter;stroke:rgb(0%,0%,0%);stroke-opacity:1;stroke-miterlimit:10;" d="M 229.773438 193.023438 L 242.578125 196.125 "/>
<path style="fill:none;stroke-width:1.2;stroke-linecap:butt;stroke-linejoin:miter;stroke:rgb(100%,0%,0%);stroke-opacity:1;stroke-miterlimit:10;" d="M 242.578125 196.125 L 255.378906 199.222656 "/>
<path style="fill:none;stroke-width:1.2;stroke-linecap:butt;stroke-linejoin:miter;stroke:rgb(0%,0%,0%);stroke-opacity:1;stroke-miterlimit:10;" d="M 227.527344 190.886719 L 218.445312 200.425781 "/>
<path style="fill:none;stroke-width:1.2;stroke-linecap:butt;stroke-linejoin:miter;stroke:rgb(100%,0%,0%);stroke-opacity:1;stroke-miterlimit:10;" d="M 218.445312 200.425781 L 209.359375 209.964844 "/>
<path style="fill:none;stroke-width:1.2;stroke-linecap:butt;stroke-linejoin:miter;stroke:rgb(0%,0%,0%);stroke-opacity:1;stroke-miterlimit:10;" d="M 232.019531 195.164062 L 222.933594 204.699219 "/>
<path style="fill:none;stroke-width:1.2;stroke-linecap:butt;stroke-linejoin:miter;stroke:rgb(100%,0%,0%);stroke-opacity:1;stroke-miterlimit:10;" d="M 222.933594 204.699219 L 213.847656 214.238281 "/>
<path style="fill:none;stroke-width:1.2;stroke-linecap:butt;stroke-linejoin:miter;stroke:rgb(100%,0%,0%);stroke-opacity:1;stroke-miterlimit:10;" d="M 255.378906 199.222656 L 259.097656 211.859375 "/>
<path style="fill:none;stroke-width:1.2;stroke-linecap:butt;stroke-linejoin:miter;stroke:rgb(0%,0%,0%);stroke-opacity:1;stroke-miterlimit:10;" d="M 259.097656 211.859375 L 262.816406 224.496094 "/>
<path style=" stroke:none;fill-rule:nonzero;fill:rgb(100%,100%,100%);fill-opacity:1;" d="M 251.378906 192.722656 L 260.378906 192.722656 L 260.378906 205.722656 L 251.378906 205.722656 Z M 251.378906 192.722656 "/>
<g style="fill:rgb(100%,0%,0%);fill-opacity:1;">
  <use xlink:href="#glyph0-4" x="251.378906" y="202.624023"/>
</g>
<path style=" stroke:none;fill-rule:nonzero;fill:rgb(100%,100%,100%);fill-opacity:1;" d="M 202.601562 205.601562 L 211.601562 205.601562 L 211.601562 218.601562 L 202.601562 218.601562 Z M 202.601562 205.601562 "/>
<g style="fill:rgb(100%,0%,0%);fill-opacity:1;">
  <use xlink:href="#glyph0-4" x="202.601562" y="215.50293"/>
</g>
<path style="fill:none;stroke-width:1.2;stroke-linecap:butt;stroke-linejoin:miter;stroke:rgb(0%,0%,0%);stroke-opacity:1;stroke-miterlimit:10;" d="M 232.375 100.320312 L 257.191406 109.160156 "/>
<path style="fill:none;stroke-width:1.2;stroke-linecap:butt;stroke-linejoin:miter;stroke:rgb(0%,0%,0%);stroke-opacity:1;stroke-miterlimit:10;" d="M 232.375 100.320312 L 207.554688 91.480469 "/>
<path style="fill:none;stroke-width:1.2;stroke-linecap:butt;stroke-linejoin:miter;stroke:rgb(0%,0%,0%);stroke-opacity:1;stroke-miterlimit:10;" d="M 232.375 100.320312 L 241.214844 75.503906 "/>
<path style="fill:none;stroke-width:1.2;stroke-linecap:butt;stroke-linejoin:miter;stroke:rgb(0%,0%,0%);stroke-opacity:1;stroke-miterlimit:10;" d="M 104.503906 139.632812 L 80.746094 128.246094 "/>
<path style="fill:none;stroke-width:1.2;stroke-linecap:butt;stroke-linejoin:miter;stroke:rgb(0%,0%,0%);stroke-opacity:1;stroke-miterlimit:10;" d="M 99.449219 144.085938 L 80.445312 134.976562 "/>
</g>
</svg>

<svg xmlns="http://www.w3.org/2000/svg" xmlns:xlink="http://www.w3.org/1999/xlink" width="300pt" height="300pt" viewBox="0 0 300 300"><defs><symbol overflow="visible"><path d="M.547 1.938V-7.75h5.5v9.688zm.625-.61h4.266v-8.47H1.171zm0 0"/></symbol><symbol overflow="visible" id="a"><path d="M1.078-8.016h4.61v.907H2.171v2.36h3.172v.922H2.172V0H1.078zm0 0"/></symbol><symbol overflow="visible" id="b"><path d="M1.078-8.016h1.47l3.546 6.704v-6.704h1.062V0H5.688L2.124-6.703V0H1.078zm0 0"/></symbol><symbol overflow="visible" id="c"><path d="M1.078-8.016h1.094v3.282H6.11v-3.282h1.077V0H6.11v-3.813H2.17V0H1.078zm0 0"/></symbol><symbol overflow="visible" id="d"><path d="M4.328-7.28c-.78 0-1.406.296-1.875.89-.46.585-.687 1.382-.687 2.39 0 1.012.226 1.813.687 2.406.47.586 1.094.875 1.875.875.79 0 1.414-.288 1.875-.874.457-.593.688-1.394.688-2.406 0-1.008-.23-1.805-.687-2.39-.46-.594-1.086-.89-1.875-.89zm0-.892c1.125 0 2.024.383 2.703 1.14C7.708-6.28 8.048-5.27 8.048-4c0 1.262-.34 2.273-1.016 3.03C6.353-.22 5.454.157 4.33.157S2.3-.22 1.625-.97c-.668-.75-1-1.757-1-3.03 0-1.27.332-2.28 1-3.03.676-.76 1.578-1.142 2.703-1.142zm0 0"/></symbol></defs><g><path fill="#fff" d="M0 0h300v300H0z"/><path d="M35.25 131.742l11.88 5.696" stroke-width="1.2" stroke="#3cc" stroke-miterlimit="10" fill="none"/><path d="M47.13 137.438l11.878 5.69" stroke-width="1.2" stroke="#000" stroke-miterlimit="10" fill="none"/><path d="M28.25 125.242h7v13h-7zm0 0" fill="#fff"/><use xlink:href="#a" x="28.25" y="135.144" fill="#3cc"/><path d="M59.008 143.13l2.02 26.268M65.39 145.28l1.614 21.017M80.746 128.246L59.008 143.13M61.027 169.398l23.758 11.387M84.785 180.785l21.738-14.883M83.457 174.18l17.39-11.907M106.523 165.902l11.88 5.692" stroke-width="1.2" stroke="#000" stroke-miterlimit="10" fill="none"/><path d="M118.402 171.594l11.88 5.695" stroke-width="1.2" stroke="#00f" stroke-miterlimit="10" fill="none"/><path d="M106.523 165.902l-2.02-26.27" stroke-width="1.2" stroke="#000" stroke-miterlimit="10" fill="none"/><path d="M130.28 177.29l10.872-7.442" stroke-width="1.2" stroke="#00f" stroke-miterlimit="10" fill="none"/><path d="M141.152 169.848l10.87-7.442" stroke-width="1.2" stroke="#000" stroke-miterlimit="10" fill="none"/><path d="M122.28 170.79h17v13h-17zm0 0" fill="#fff"/><g fill="#00f"><use xlink:href="#b" x="122.281" y="180.69"/><use xlink:href="#c" x="130.265" y="180.69"/></g><path d="M155.113 162.168l-1.01-13.133" stroke-width="1.2" stroke="#000" stroke-miterlimit="10" fill="none"/><path d="M154.102 149.035l-1.008-13.137" stroke-width="1.2" stroke="#f00" stroke-miterlimit="10" fill="none"/><path d="M148.93 162.645l-1.008-13.137" stroke-width="1.2" stroke="#000" stroke-miterlimit="10" fill="none"/><path d="M147.922 149.508l-1.008-13.133" stroke-width="1.2" stroke="#f00" stroke-miterlimit="10" fill="none"/><path d="M152.023 162.406l11.88 5.692" stroke-width="1.2" stroke="#000" stroke-miterlimit="10" fill="none"/><path d="M163.902 168.098l11.88 5.695" stroke-width="1.2" stroke="#00f" stroke-miterlimit="10" fill="none"/><path d="M146.004 129.637h9v13h-9zm0 0" fill="#fff"/><use xlink:href="#d" x="146.004" y="139.538" fill="#f00"/><path d="M175.78 173.793l10.868-7.44" stroke-width="1.2" stroke="#00f" stroke-miterlimit="10" fill="none"/><path d="M186.648 166.352l10.872-7.442" stroke-width="1.2" stroke="#000" stroke-miterlimit="10" fill="none"/><path d="M167.78 167.293h17v13h-17zm0 0" fill="#fff"/><g fill="#00f"><use xlink:href="#b" x="167.781" y="177.194"/><use xlink:href="#c" x="175.765" y="177.194"/></g><path d="M197.52 158.91l.738-26.336M222.336 167.75l-24.816-8.84M221.938 161.027l-19.856-7.074M198.258 132.574l25.273-7.433M202.535 137.777l20.22-5.95M223.53 125.14l7.443 10.868" stroke-width="1.2" stroke="#000" stroke-miterlimit="10" fill="none"/><path d="M230.973 136.008l7.44 10.87" stroke-width="1.2" stroke="#00f" stroke-miterlimit="10" fill="none"/><path d="M223.53 125.14l8.845-24.82" stroke-width="1.2" stroke="#000" stroke-miterlimit="10" fill="none"/><path d="M238.414 146.88l13.168.366" stroke-width="1.2" stroke="#00f" stroke-miterlimit="10" fill="none"/><path d="M251.582 147.246l13.168.37" stroke-width="1.2" stroke="#000" stroke-miterlimit="10" fill="none"/><path d="M238.414 146.88l-8.04 10.436" stroke-width="1.2" stroke="#00f" stroke-miterlimit="10" fill="none"/><path d="M230.375 157.316l-8.04 10.434" stroke-width="1.2" stroke="#000" stroke-miterlimit="10" fill="none"/><path d="M234.414 140.38h8v13h-8zm0 0" fill="#fff"/><use xlink:href="#b" x="234.414" y="150.28" fill="#00f"/><path d="M222.336 167.75l7.437 25.273M229.773 193.023l12.805 3.102" stroke-width="1.2" stroke="#000" stroke-miterlimit="10" fill="none"/><path d="M242.578 196.125l12.8 3.098" stroke-width="1.2" stroke="#f00" stroke-miterlimit="10" fill="none"/><path d="M227.527 190.887l-9.082 9.54" stroke-width="1.2" stroke="#000" stroke-miterlimit="10" fill="none"/><path d="M218.445 200.426l-9.086 9.54" stroke-width="1.2" stroke="#f00" stroke-miterlimit="10" fill="none"/><path d="M232.02 195.164l-9.086 9.535" stroke-width="1.2" stroke="#000" stroke-miterlimit="10" fill="none"/><path d="M222.934 204.7l-9.086 9.538M255.38 199.223l3.718 12.636" stroke-width="1.2" stroke="#f00" stroke-miterlimit="10" fill="none"/><path d="M259.098 211.86l3.718 12.636" stroke-width="1.2" stroke="#000" stroke-miterlimit="10" fill="none"/><path d="M251.38 192.723h9v13h-9zm0 0" fill="#fff"/><use xlink:href="#d" x="251.379" y="202.624" fill="#f00"/><path d="M202.602 205.602h9v13h-9zm0 0" fill="#fff"/><use xlink:href="#d" x="202.602" y="215.503" fill="#f00"/><path d="M232.375 100.32l24.816 8.84M232.375 100.32l-24.82-8.84M232.375 100.32l8.84-24.816M104.504 139.633l-23.758-11.387M99.45 144.086l-19.005-9.11" stroke-width="1.2" stroke="#000" stroke-miterlimit="10" fill="none"/></g></svg>
